img/svg/note.svg

<svg xmlns="http://www.w3.org/2000/svg" xmlns:xlink="http://www.w3.org/1999/xlink" preserveAspectRatio="xMidYMid" width="33" height="38" viewBox="0 0 33 38">
  <defs>
    <style>

      .cls-2 {
        fill: #abafb3;
      }
    </style>
  </defs>
  <path d="M-0.000,38.000 C-0.000,38.000 -0.000,-0.000 -0.000,-0.000 C-0.000,-0.000 22.969,-0.000 22.969,-0.000 C22.969,-0.000 33.000,-0.000 33.000,-0.000 C33.000,-0.000 33.000,10.000 33.000,10.000 C33.000,10.000 33.000,38.000 33.000,38.000 C33.000,38.000 -0.000,38.000 -0.000,38.000 ZM31.000,10.094 C31.000,10.094 31.000,2.000 31.000,2.000 C31.000,2.000 22.906,2.000 22.906,2.000 C22.906,2.000 2.000,2.000 2.000,2.000 C2.000,2.000 2.000,36.000 2.000,36.000 C2.000,36.000 31.000,36.000 31.000,36.000 C31.000,36.000 31.000,10.094 31.000,10.094 ZM27.000,10.000 C27.000,10.000 6.000,10.000 6.000,10.000 C6.000,10.000 6.000,8.000 6.000,8.000 C6.000,8.000 27.000,8.000 27.000,8.000 C27.000,8.000 27.000,10.000 27.000,10.000 ZM27.000,15.000 C27.000,15.000 6.000,15.000 6.000,15.000 C6.000,15.000 6.000,13.000 6.000,13.000 C6.000,13.000 27.000,13.000 27.000,13.000 C27.000,13.000 27.000,15.000 27.000,15.000 ZM27.000,20.000 C27.000,20.000 6.000,20.000 6.000,20.000 C6.000,20.000 6.000,18.000 6.000,18.000 C6.000,18.000 27.000,18.000 27.000,18.000 C27.000,18.000 27.000,20.000 27.000,20.000 ZM27.000,25.000 C27.000,25.000 6.000,25.000 6.000,25.000 C6.000,25.000 6.000,23.000 6.000,23.000 C6.000,23.000 27.000,23.000 27.000,23.000 C27.000,23.000 27.000,25.000 27.000,25.000 ZM16.000,30.000 C16.000,30.000 6.000,30.000 6.000,30.000 C6.000,30.000 6.000,28.000 6.000,28.000 C6.000,28.000 16.000,28.000 16.000,28.000 C16.000,28.000 16.000,30.000 16.000,30.000 Z" id="path-1" class="cls-2" fill-rule="evenodd"/>
</svg>

<svg xmlns="http://www.w3.org/2000/svg" preserveAspectRatio="xMidYMid" width="33" height="38" viewBox="0 0 33 38"><defs><style>.cls-2 { fill: #abafb3; }</style></defs><path d="M0 38v-38h33v38h-33zm31-27.906v-8.094h-29v34h29v-25.906zm-4-.094h-21v-2h21v2zm0 5h-21v-2h21v2zm0 5h-21v-2h21v2zm0 5h-21v-2h21v2zm-11 5h-10v-2h10v2z" id="path-1" class="cls-2" fill-rule="evenodd"/></svg>
